Newaita-dark/apps/16/fluid-demo.svg

<svg height="16" viewBox="0 0 16 16" width="16" xmlns="http://www.w3.org/2000/svg" xmlns:xlink="http://www.w3.org/1999/xlink"><linearGradient id="a"><stop offset="0" stop-opacity=".313726"/><stop offset=".222222" stop-opacity=".27451"/><stop offset="1" stop-opacity="0"/></linearGradient><radialGradient id="b" cx="450.908936" cy="189.579361" gradientTransform="matrix(.00000009 -.0390662 -.0703192 -.00000005 22.261576 31.797665)" gradientUnits="userSpaceOnUse" r="21.166656" xlink:href="#a"/><radialGradient id="c" cx="450.908936" cy="189.579361" gradientTransform="matrix(-.00000009 .0390662 .0703192 .00000005 -6.385059 -3.763741)" gradientUnits="userSpaceOnUse" r="21.166656" xlink:href="#a"/><radialGradient id="d" cx="450.908936" cy="189.579361" gradientTransform="matrix(-.00000009 -.0390662 .0703192 -.00000005 -6.385059 31.797665)" gradientUnits="userSpaceOnUse" r="21.166656" xlink:href="#a"/><radialGradient id="e" cx="450.908936" cy="189.579361" gradientTransform="matrix(.00000009 .0390662 -.0703192 .00000005 22.261575 -3.763741)" gradientUnits="userSpaceOnUse" r="21.166656" xlink:href="#a"/><linearGradient id="f" gradientTransform="matrix(.00668003 0 0 .031253 6.232693 6.719392)" gradientUnits="userSpaceOnUse" x1="255.323059" x2="255.323044" y1="233.5" y2="254.666656"><stop offset="0" stop-opacity=".27451"/><stop offset="1" stop-opacity="0"/></linearGradient><linearGradient id="g" gradientUnits="userSpaceOnUse" x1="232.833328" x2="232.833328" y1="233.5" y2="-168.666656"><stop offset="0" stop-color="#ef5350"/><stop offset="1" stop-color="#e57373"/></linearGradient><linearGradient id="h" gradientUnits="userSpaceOnUse" x1="1.33056045803" x2="1.33056045803" y1=".72382649095" y2=".13008827225"><stop offset="0" stop-color="#e0e0e0"/><stop offset="1" stop-color="#eee"/></linearGradient><path d="m9.097656 14.015625h1.320313v-.660156h-1.320313zm0 0" fill="url(#b)"/><path d="m6.78125 14.015625h-1.324219v.664063h1.324219zm0 0" fill="url(#c)"/><path d="m6.78125 14.015625h-1.324219v-.660156h1.324219zm0 0" fill="url(#d)"/><path d="m9.097656 14.015625h1.320313v.664063h-1.320313zm0 0" fill="url(#e)"/><path d="m6.78125 13.851562h2.316406v.828126h-2.316406zm0 0" fill="url(#f)"/><path d="m253.975747-168.629428c111.114389 0 201.105795 89.991406 201.105795 201.105795 0 110.989401-89.991406 200.980807-201.105795 200.980807-110.989402 0-201.105796-89.991406-201.105796-200.980807 0-111.114389 90.116394-201.105795 201.105796-201.105795zm0 0" fill="url(#g)" stroke="#333" stroke-linecap="round" stroke-width="3" transform="matrix(.031253 0 0 .031253 0 6.719392)"/><path d="m7.9375 14.015625c-3.480469 0-6.285156-2.800781-6.285156-6.28125 0-.023437 0-.042969 0-.0625.035156 3.453125 2.824218 6.222656 6.285156 6.222656s6.253906-2.769531 6.285156-6.222656v.0625c0 3.480469-2.804687 6.28125-6.285156 6.28125zm0 0" fill-opacity=".196078"/><path d="m7.9375 1.449219c-3.480469 0-6.285156 2.800781-6.285156 6.285156v.058594c.035156-3.453125 2.824218-6.222657 6.285156-6.222657s6.253906 2.769532 6.285156 6.222657c0-.019531 0-.039063 0-.058594 0-3.484375-2.804687-6.285156-6.285156-6.285156zm0 0" fill="#fff" fill-opacity=".392157"/><path d="m7.9375 1.402344c-3.507812 0-6.332031 2.824218-6.332031 6.332031 0 3.503906 2.824219 6.328125 6.332031 6.328125s6.332031-2.824219 6.332031-6.328125c0-3.507813-2.824219-6.332031-6.332031-6.332031zm0 .09375c3.457031 0 6.238281 2.78125 6.238281 6.238281 0 3.453125-2.78125 6.234375-6.238281 6.234375s-6.238281-2.78125-6.238281-6.234375c0-3.457031 2.78125-6.238281 6.238281-6.238281zm0 0" fill="#212121"/><path d="m5.007812 4.863281 1.332032 2.121094-2.320313-.53125 3.136719 2.632813-.128906.140624-.070313.070313s.050781.140625.113281.304687l-1.917968.941407h2.257812l.8125-.5625 1.910156-1.324219.867188-.601562-.117188-1.773438v-.109375l.957032.109375-.957032-1.03125-1.238281.1875-.222656.035156-.398437.980469-.238282.421875zm0 0" fill="url(#h)"/><path d="m5.007812 4.863281.234376.371094 3.542968 1.886719.238282-.421875.398437-.980469.222656-.03125 1.238281-.1875.699219.753906.257813.027344-.957032-1.03125-1.238281.1875-.222656.035156-.398437.980469-.238282.421875zm5.875 1.554688v.113281l.101563 1.535156.015625-.011718-.109375-1.632813zm-6.863281.035156.40625.339844 1.914063.4375-.183594-.289063zm3.007813 2.773437-.070313.070313s.039063.105469.066407.179687l.003906-.003906.128906-.136718zm-.035156.414063-1.839844.902344h.503906l1.414062-.691407c-.042968-.117187-.058593-.160156-.078124-.210937zm0 0" fill="#fff" fill-opacity=".970968"/><path d="m5.007812 5.109375 1.148438 1.832031.183594.042969-1.097656-1.75zm5.875 1.0625v.109375l.007813.140625.949219.109375-.257813-.277344zm-6.863281.527344 3.007813 2.527343.128906-.140624-2.730469-2.292969zm6.964844 1.367187-.851563.589844-1.910156 1.324219-.8125.5625h-1.753906l-.503906.25h2.257812l.8125-.5625 1.910156-1.328125.867188-.601563zm-3.960937 1.410156-.066407.070313s.027344.070313.035157.09375l.078124-.039063c-.027343-.066406-.027343-.074218-.046874-.125zm0 0" fill-opacity=".235294"/><path d="m605.61127 588.132834 161.08697 256.510924-280.60311-64.24583 379.333834 318.394775-15.589061 17.006249-8.503125 8.503125s6.141146 17.006249 13.699478 36.846873l-231.946342 113.84739h273.044778l98.258328-68.024997 231.00155-160.142179 104.87187-72.748954-14.171874-214.467698v-13.227082l115.736973 13.227082-115.736973-124.712493-149.749472 22.674999-26.926561 4.251562-48.184372 118.571348-28.816144 51.018747zm0 0" fill="none" stroke="#212121" stroke-width="11.338582" transform="matrix(.00826902 0 0 .00826902 .000001 0)"/></svg>

<?xml version="1.0" encoding="UTF-8"?>
<svg xmlns="http://www.w3.org/2000/svg" xmlns:xlink="http://www.w3.org/1999/xlink" width="16px" height="16px" viewBox="0 0 16 16" version="1.1">
<defs>
<radialGradient id="radial0" gradientUnits="userSpaceOnUse" cx="450.908936" cy="189.579361" fx="450.908936" fy="189.579361" r="21.166656" gradientTransform="matrix(0.0000000870852,-0.0390662,-0.0703192,-0.0000000507693,22.261576,31.797665)">
<stop offset="0" style="stop-color:rgb(0%,0%,0%);stop-opacity:0.313726;"/>
<stop offset="0.222222" style="stop-color:rgb(0%,0%,0%);stop-opacity:0.27451;"/>
<stop offset="1" style="stop-color:rgb(0%,0%,0%);stop-opacity:0;"/>
</radialGradient>
<radialGradient id="radial1" gradientUnits="userSpaceOnUse" cx="450.908936" cy="189.579361" fx="450.908936" fy="189.579361" r="21.166656" gradientTransform="matrix(-0.0000000870852,0.0390662,0.0703192,0.0000000507693,-6.385059,-3.763741)">
<stop offset="0" style="stop-color:rgb(0%,0%,0%);stop-opacity:0.313726;"/>
<stop offset="0.222222" style="stop-color:rgb(0%,0%,0%);stop-opacity:0.27451;"/>
<stop offset="1" style="stop-color:rgb(0%,0%,0%);stop-opacity:0;"/>
</radialGradient>
<radialGradient id="radial2" gradientUnits="userSpaceOnUse" cx="450.908936" cy="189.579361" fx="450.908936" fy="189.579361" r="21.166656" gradientTransform="matrix(-0.0000000870852,-0.0390662,0.0703192,-0.0000000507693,-6.385059,31.797665)">
<stop offset="0" style="stop-color:rgb(0%,0%,0%);stop-opacity:0.313726;"/>
<stop offset="0.222222" style="stop-color:rgb(0%,0%,0%);stop-opacity:0.27451;"/>
<stop offset="1" style="stop-color:rgb(0%,0%,0%);stop-opacity:0;"/>
</radialGradient>
<radialGradient id="radial3" gradientUnits="userSpaceOnUse" cx="450.908936" cy="189.579361" fx="450.908936" fy="189.579361" r="21.166656" gradientTransform="matrix(0.0000000870852,0.0390662,-0.0703192,0.0000000507693,22.261575,-3.763741)">
<stop offset="0" style="stop-color:rgb(0%,0%,0%);stop-opacity:0.313726;"/>
<stop offset="0.222222" style="stop-color:rgb(0%,0%,0%);stop-opacity:0.27451;"/>
<stop offset="1" style="stop-color:rgb(0%,0%,0%);stop-opacity:0;"/>
</radialGradient>
<linearGradient id="linear0" gradientUnits="userSpaceOnUse" x1="255.323059" y1="233.5" x2="255.323044" y2="254.666656" gradientTransform="matrix(0.00668003,0,0,0.031253,6.232693,6.719392)">
<stop offset="0" style="stop-color:rgb(0%,0%,0%);stop-opacity:0.27451;"/>
<stop offset="1" style="stop-color:rgb(0%,0%,0%);stop-opacity:0;"/>
</linearGradient>
<linearGradient id="linear1" gradientUnits="userSpaceOnUse" x1="232.833328" y1="233.5" x2="232.833328" y2="-168.666656" >
<stop offset="0" style="stop-color:rgb(93.725491%,32.549021%,31.37255%);stop-opacity:1;"/>
<stop offset="1" style="stop-color:rgb(89.803922%,45.09804%,45.09804%);stop-opacity:1;"/>
</linearGradient>
<linearGradient id="linear2" gradientUnits="userSpaceOnUse" x1="160.908966" y1="87.534737" x2="160.908966" y2="15.732006" gradientTransform="matrix(0.00826902,0,0,0.00826902,0.00000130017,-0.000000430532)">
<stop offset="0" style="stop-color:rgb(87.843138%,87.843138%,87.843138%);stop-opacity:1;"/>
<stop offset="1" style="stop-color:rgb(93.333334%,93.333334%,93.333334%);stop-opacity:1;"/>
</linearGradient>
</defs>
<g id="surface1">
<path style=" stroke:none;fill-rule:nonzero;fill:url(#radial0);" d="M 9.097656 14.015625 L 10.417969 14.015625 L 10.417969 13.355469 L 9.097656 13.355469 Z M 9.097656 14.015625 "/>
<path style=" stroke:none;fill-rule:nonzero;fill:url(#radial1);" d="M 6.78125 14.015625 L 5.457031 14.015625 L 5.457031 14.679688 L 6.78125 14.679688 Z M 6.78125 14.015625 "/>
<path style=" stroke:none;fill-rule:nonzero;fill:url(#radial2);" d="M 6.78125 14.015625 L 5.457031 14.015625 L 5.457031 13.355469 L 6.78125 13.355469 Z M 6.78125 14.015625 "/>
<path style=" stroke:none;fill-rule:nonzero;fill:url(#radial3);" d="M 9.097656 14.015625 L 10.417969 14.015625 L 10.417969 14.679688 L 9.097656 14.679688 Z M 9.097656 14.015625 "/>
<path style=" stroke:none;fill-rule:nonzero;fill:url(#linear0);" d="M 6.78125 13.851562 L 9.097656 13.851562 L 9.097656 14.679688 L 6.78125 14.679688 Z M 6.78125 13.851562 "/>
<path style="fill-rule:nonzero;fill:url(#linear1);stroke-width:3;stroke-linecap:round;stroke-linejoin:miter;stroke:rgb(20%,20%,20%);stroke-opacity:1;stroke-miterlimit:4;" d="M 253.975747 -168.629428 C 365.090136 -168.629428 455.081542 -78.638022 455.081542 32.476367 C 455.081542 143.465768 365.090136 233.457174 253.975747 233.457174 C 142.986345 233.457174 52.869951 143.465768 52.869951 32.476367 C 52.869951 -78.638022 142.986345 -168.629428 253.975747 -168.629428 Z M 253.975747 -168.629428 " transform="matrix(0.031253,0,0,0.031253,0,6.719392)"/>
<path style=" stroke:none;fill-rule:nonzero;fill:rgb(0%,0%,0%);fill-opacity:0.196078;" d="M 7.9375 14.015625 C 4.457031 14.015625 1.652344 11.214844 1.652344 7.734375 C 1.652344 7.710938 1.652344 7.691406 1.652344 7.671875 C 1.6875 11.125 4.476562 13.894531 7.9375 13.894531 C 11.398438 13.894531 14.191406 11.125 14.222656 7.671875 C 14.222656 7.691406 14.222656 7.710938 14.222656 7.734375 C 14.222656 11.214844 11.417969 14.015625 7.9375 14.015625 Z M 7.9375 14.015625 "/>
<path style=" stroke:none;fill-rule:nonzero;fill:rgb(100%,100%,100%);fill-opacity:0.392157;" d="M 7.9375 1.449219 C 4.457031 1.449219 1.652344 4.25 1.652344 7.734375 C 1.652344 7.753906 1.652344 7.773438 1.652344 7.792969 C 1.6875 4.339844 4.476562 1.570312 7.9375 1.570312 C 11.398438 1.570312 14.191406 4.339844 14.222656 7.792969 C 14.222656 7.773438 14.222656 7.753906 14.222656 7.734375 C 14.222656 4.25 11.417969 1.449219 7.9375 1.449219 Z M 7.9375 1.449219 "/>
<path style=" stroke:none;fill-rule:nonzero;fill:rgb(12.941177%,12.941177%,12.941177%);fill-opacity:1;" d="M 7.9375 1.402344 C 4.429688 1.402344 1.605469 4.226562 1.605469 7.734375 C 1.605469 11.238281 4.429688 14.0625 7.9375 14.0625 C 11.445312 14.0625 14.269531 11.238281 14.269531 7.734375 C 14.269531 4.226562 11.445312 1.402344 7.9375 1.402344 Z M 7.9375 1.496094 C 11.394531 1.496094 14.175781 4.277344 14.175781 7.734375 C 14.175781 11.1875 11.394531 13.96875 7.9375 13.96875 C 4.480469 13.96875 1.699219 11.1875 1.699219 7.734375 C 1.699219 4.277344 4.480469 1.496094 7.9375 1.496094 Z M 7.9375 1.496094 "/>
<path style=" stroke:none;fill-rule:nonzero;fill:url(#linear2);" d="M 5.007812 4.863281 L 6.339844 6.984375 L 4.019531 6.453125 L 7.15625 9.085938 L 7.027344 9.226562 L 6.957031 9.296875 C 6.957031 9.296875 7.007812 9.4375 7.070312 9.601562 L 5.152344 10.542969 L 7.410156 10.542969 L 8.222656 9.980469 L 10.132812 8.65625 L 11 8.054688 L 10.882812 6.28125 L 10.882812 6.171875 L 11.839844 6.28125 L 10.882812 5.25 L 9.644531 5.4375 L 9.421875 5.472656 L 9.023438 6.453125 L 8.785156 6.875 Z M 5.007812 4.863281 "/>
<path style=" stroke:none;fill-rule:nonzero;fill:rgb(100%,100%,100%);fill-opacity:0.970968;" d="M 5.007812 4.863281 L 5.242188 5.234375 L 8.785156 7.121094 L 9.023438 6.699219 L 9.421875 5.71875 L 9.644531 5.6875 L 10.882812 5.5 L 11.582031 6.253906 L 11.839844 6.28125 L 10.882812 5.25 L 9.644531 5.4375 L 9.421875 5.472656 L 9.023438 6.453125 L 8.785156 6.875 Z M 10.882812 6.417969 L 10.882812 6.53125 L 10.984375 8.066406 L 11 8.054688 L 10.890625 6.421875 Z M 4.019531 6.453125 L 4.425781 6.792969 L 6.339844 7.230469 L 6.15625 6.941406 Z M 7.027344 9.226562 L 6.957031 9.296875 C 6.957031 9.296875 6.996094 9.402344 7.023438 9.476562 L 7.027344 9.472656 L 7.15625 9.335938 Z M 6.992188 9.640625 L 5.152344 10.542969 L 5.65625 10.542969 L 7.070312 9.851562 C 7.027344 9.734375 7.011719 9.691406 6.992188 9.640625 Z M 6.992188 9.640625 "/>
<path style=" stroke:none;fill-rule:nonzero;fill:rgb(0%,0%,0%);fill-opacity:0.235294;" d="M 5.007812 5.109375 L 6.15625 6.941406 L 6.339844 6.984375 L 5.242188 5.234375 Z M 10.882812 6.171875 L 10.882812 6.28125 L 10.890625 6.421875 L 11.839844 6.53125 L 11.582031 6.253906 Z M 4.019531 6.699219 L 7.027344 9.226562 L 7.15625 9.085938 L 4.425781 6.792969 Z M 10.984375 8.066406 L 10.132812 8.65625 L 8.222656 9.980469 L 7.410156 10.542969 L 5.65625 10.542969 L 5.152344 10.792969 L 7.410156 10.792969 L 8.222656 10.230469 L 10.132812 8.902344 L 11 8.300781 Z M 7.023438 9.476562 L 6.957031 9.546875 C 6.957031 9.546875 6.984375 9.617188 6.992188 9.640625 L 7.070312 9.601562 C 7.042969 9.535156 7.042969 9.527344 7.023438 9.476562 Z M 7.023438 9.476562 "/>
<path style="fill:none;stroke-width:11.338582;stroke-linecap:butt;stroke-linejoin:miter;stroke:rgb(12.941177%,12.941177%,12.941177%);stroke-opacity:1;stroke-miterlimit:4;" d="M 605.61127 588.132834 L 766.69824 844.643758 L 486.09513 780.397928 L 865.428964 1098.792703 L 849.839903 1115.798952 L 841.336778 1124.302077 C 841.336778 1124.302077 847.477924 1141.308326 855.036256 1161.14895 L 623.089914 1274.99634 L 896.134692 1274.99634 L 994.39302 1206.971343 L 1225.39457 1046.829164 L 1330.26644 974.08021 L 1316.094566 759.612512 L 1316.094566 746.38543 L 1431.831539 759.612512 L 1316.094566 634.900019 L 1166.345094 657.575018 L 1139.418533 661.82658 L 1091.234161 780.397928 L 1062.418017 831.416675 Z M 605.61127 588.132834 " transform="matrix(0.00826902,0,0,0.00826902,0.00000130017,-0.000000430532)"/>
</g>
</svg>
